X:254
T:Reel 254
M:4/4
K:Gmaj
L:1/8
G>B (3BAB cBAB|GBdg e2d2||c>A (3cBA B>cd>B| (3ABA =fd c2:||2Bdef g2g2|B>d (3ddd e2d2|B>c (3dAA e>A (3AGA |Acde g2fd|edcd BcA2| (3efg dB c2B2|A>B (3AAA e2ed|e>B (3cBA e>A (3AAA |e>c (3cBc B2B2|A>A (3AAA e2f2|d>e (3fed e2e2|e2ed e2dB|AGAB c2BG|
